doubledragon/_inc/system.svg

<svg xmlns="http://www.w3.org/2000/svg"><g fill="#fff"><path d="m263.378 293.303c-11.202-7.351-28.175-25.727-35.001-37.451-3.849-6.826-6.126-9.099-8.75-8.751-3.151.526-3.499 2.102-4.376 17.85l-.874 17.151-7.877 3.15-7.874 3.15-.873-15.225c-.877-14.175-1.052-15.049-4.727-14.874-3.673.174-4.024-.7-4.024-9.976 0-8.574.525-10.325 3.498-11.199 3.328-1.051 3.502-2.624 3.502-22.751 0-20.474-.174-21.874-4.376-26.775-2.45-2.976-4.375-5.952-4.375-6.826 0-.699 2.45-4.549 5.601-8.225 15.399-18.901 50.225-20.475 64.925-2.976 5.427 6.478 7.352 14.877 5.949 26.427-1.399 10.85-6.123 20.126-14.874 28.526-6.649 6.474-6.826 7.174-5.249 13.123 2.799 10.501 10.324 26.252 12.949 27.3 2.802 1.051 5.949-5.249 5.949-12.249 0-2.976-.874-4.198-3.499-4.198-4.201 0-4.201-.703-.699-11.027 2.273-6.826 3.498-8.226 7-8.226 3.324 0 4.901-1.573 7.174-7.348 1.576-4.201 6.3-14.177 10.502-22.226l7.699-14.699-4.726-3.85-4.724-3.85 6.474-10.676c3.676-5.952 7.174-10.85 8.051-10.85 2.451 0 17.151 17.325 23.274 27.649 8.577 14.352 25.727 60.727 25.727 69.652 0 4.724 8.399 21 12.949 25.025 2.45 2.45 4.549 4.901 4.549 5.774 0 .7-10.324 1.4-22.75 1.4h-22.748l3.498-7.174 3.676-7.001-3.676-11.375-3.85-11.198h-15.573-15.4l-3.15 5.775c-2.451 4.372-3.15 9.798-3.15 25.372 0 18.553-.178 19.601-3.502 19.601-1.925 0-7.525-2.625-12.249-5.949zm45.676-66.325c1.225-3.502-5.775-18.727-8.577-18.727-2.976 0-8.925 14.7-7.525 18.376 1.225 3.324 14.699 3.675 16.102.351zm-80.677-8.402c8.052-7.175 11.199-17.148 7.175-23.448-2.799-4.376-6.826-5.427-12.424-3.327-4.727 1.924-7.877 10.501-7.877 21.702 0 9.274.352 10.499 3.502 10.499 1.747 0 6.123-2.45 9.624-5.426z"/><path d="m537.954 295.576c-6.649-3.324-7.7-9.099-7.7-40.072 0-18.553-.7-29.928-1.748-30.628-3.675-2.273-6.477 2.802-7.525 12.601-1.403 12.6-9.976 30.276-18.202 37.099-22.574 18.727-51.099 5.252-61.775-29.222-6.826-22.052-3.15-55.653 7.874-72.452 10.501-15.75 30.802-21.525 46.376-13.3 14 7.526 26.252 29.048 26.252 45.85 0 8.574 4.198 14.349 7.174 9.625.874-1.399 1.574-16.625 1.574-33.949v-31.502l5.601 9.625c5.075 8.75 35.351 40.252 38.676 40.252.874 0 1.225-7.877.874-17.327-.349-13.649-1.226-18.024-3.676-20.823-3.15-3.502-2.973-3.676 8.751-10.15 6.474-3.502 13.826-7.526 15.925-8.925 4.027-2.451 4.201-2.451 2.802 1.573-3.502 11.024-4.202 19.25-4.202 56.526 0 22.226-.525 47.95-1.225 57.4l-1.051 17.15-6.649 3.325-6.648 3.501-1.051-8.399c-2.451-17.85-7.874-29.577-18.025-39.553-11.375-10.85-12.6-8.925-12.6 19.075 0 23.802 1.399 30.628 6.123 30.628 6.652 0-.349 11.55-7.874 12.949-2.451.526-6.126 0-8.051-.877zm-51.448-42.7c2.973-1.573 7-5.949 9.099-10.15 3.499-6.475 4.024-9.973 4.024-28.349 0-19.949-.174-21.525-4.901-29.399-2.973-5.075-7.348-9.451-10.85-11.202-5.423-2.624-6.3-2.624-10.498.175-6.826 4.552-10.85 12.6-13.127 25.901-4.723 27.3 4.55 52.15 20.652 55.475.349.177 2.799-1.048 5.601-2.451z"/><path d="m105.001 290.153c0-.352 1.925-5.949 4.375-12.775 4.024-11.727 4.376-14.174 4.376-53.025 0-44.802-.177-45.15-10.325-39.901-9.102 4.724-10.675 3.85-10.675-5.949 0-9.976.348-10.15 19.775-16.802 15.75-5.249 31.85-5.601 41.3-.7 14.526 7.352 25.024 25.724 28.349 49.352 2.102 14-1.4 37.274-7 48.475-4.376 8.4-13.823 18.198-21.526 22.226-5.598 2.973-48.649 10.85-48.649 9.099zm43.574-40.775c7.703-6.652 11.553-18.376 11.553-35.001-.178-17.676-5.427-29.399-15.403-34.652-11.724-5.949-11.724-5.949-11.724 36.403v37.625h5.075c2.976 0 7.352-1.925 10.499-4.375z"/><path d="m378.703 280.876c-14.174-5.949-25.024-20.823-29.4-39.898-3.501-14.877-3.501-25.55-.174-41.475 3.15-14.703 5.949-20.652 14.349-29.928 16.099-17.85 34.474-18.372 55.301-1.748 3.675 2.799 8.399 5.775 10.324 6.475 3.15.874 2.45 2.099-6.649 11.375-5.6 5.601-10.85 10.325-11.549 10.325-.7 0-2.625-2.976-4.027-6.475-3.85-9.099-9.448-14.525-14.875-14.525-18.024 0-28.351 38.324-17.15 63.174 2.451 5.427 6.301 11.202 8.577 12.775 5.423 3.85 18.724 3.85 20.297 0 1.051-2.799-1.399-21.7-4.024-29.925-1.051-3.85-.699-4.024 11.024-4.024 17.85 0 17.676-.351 18.553 31.502.348 14.874 1.225 28.7 1.925 30.625 1.225 3.324.348 3.498-23.102 3.672-16.1.178-25.898-.348-29.4-1.925z"/><path d="m16.625 140.701c4.201-9.625 5.075-26.424 3.501-65.977-1.402-38.324-1.225-37.973-12.775-30.973-3.15 1.925-6.126 3.499-6.477 3.499-.523 0-.874-4.724-.874-10.676v-10.499l10.15-4.723c21.349-9.802 45.151-6.652 59.676 8.222 12.25 12.426 16.451 24.502 17.325 50.051.525 18.55.174 22.226-3.15 31.325-8.4 22.051-26.25 33.775-54.427 35.526l-15.925 1.051zm37.451-31.325c7.874-6.651 11.201-18.727 10.324-38.15-.348-12.075-1.399-17.85-4.198-23.099-3.676-7.001-13.826-15.403-17.151-14.352-1.925.7-3.849 73.151-2.102 77.7 1.403 3.676 7.352 2.625 13.127-2.099z"/><path d="m126.875 140.175c-15.4-7.174-25.724-24.672-29.048-49-3.328-24.673 3.498-50.925 16.799-64.226 9.099-9.099 22.225-12.598 34.126-9.447 34.124 9.099 46.025 74.898 20.123 110.424-10.324 14.352-27.123 19.249-42 12.249zm19.952-27.3c8.048-4.024 12.775-16.099 13.649-34.823.7-13.301.351-17.502-2.799-25.727-7-18.724-19.075-24.676-28.526-14-15.399 17.15-12.6 63.352 4.55 73.85 6.474 4.027 6.826 4.027 13.126.7z"/><path d="m208.077 139.476c-3.324-2.099-7.874-7.7-10.15-12.25-3.676-7.699-4.202-11.375-5.427-43.751-1.222-34.826-2.447-42.526-8.222-48.826-2.276-2.625-1.225-3.85 13.297-13.475 8.751-5.949 15.925-10.15 15.925-9.45 0 .877-1.222 5.252-2.624 9.976-1.925 6.474-2.625 17.676-2.625 43.751 0 31.85.351 35.7 3.502 40.775 1.925 3.15 5.423 6.126 8.048 6.826 6.126 1.574 16.102-3.327 17.327-8.577.523-2.099.874-21.874.523-43.574-.523-37.976-.7-39.901-4.373-44.976-2.276-2.976-4.027-6.126-4.027-7.174 0-3.676 7.178-8.751 12.25-8.751 8.051 0 12.252 5.426 12.252 15.574 0 4.901.7 9.276 1.748 9.802.877.525 5.075-.874 9.102-3.325 9.273-5.252 24.499-9.802 32.724-9.802 13.475.178 28 10.85 31.325 23.451 1.576 5.426.702 13.3-2.448 23.451-.877 3.15 0 5.423 4.198 9.624 8.577 9.1 11.55 16.625 11.901 30.799.349 7.001.874 13.127 1.4 13.652 1.399 1.4 11.024-4.549 12.249-7.351.526-1.574 1.051-15.4 1.051-30.799 0-30.1-1.573-37.277-8.925-42.352-2.099-1.574-3.676-3.15-3.15-3.499 1.399-1.225 36.751-22.225 37.277-22.225.348 0-.7 3.324-2.277 7.351-2.276 6.298-2.799 15.223-2.799 51.274v43.751l8.4-.351c4.55-.174 9.625-1.225 11.024-2.45 3.502-2.799 4.727-1.049 8.4 12.252 2.624 9.973 2.624 11.55.177 15.225-3.676 5.598-8.925 6.649-29.925 5.424-9.977-.526-23.103-.174-28.878.699-5.949.877-11.198 1.4-11.549.877-.526-.351.174-2.45 1.225-4.549 3.15-5.952-.351-8.403-6.3-4.202-14 9.977-12.076 9.451-40.601 9.1-14.526-.349-26.424-.874-26.076-1.4.352-.525 2.625-5.426 5.253-11.024 4.723-9.976 4.723-10.501 4.723-48.475 0-25.553-.699-38.676-1.925-39.553-1.399-.874-10.15 2.451-15.576 5.952-.523.349-1.222 17.673-1.748 38.499-1.051 42.352-1.925 46.028-14 54.076-8.051 5.6-23.451 5.6-31.676 0zm105.352-34.301c11.373-11.375 1.925-28.174-15.751-28.174h-5.426v16.624 16.625h8.051c6.474 0 8.925-.874 13.126-5.075zm-8.402-50.4c6.651-7.525 4.375-19.423-4.024-21.525-8.051-2.1-10.502.699-10.502 12.075 0 5.6.526 10.676 1.225 11.201 2.277 2.273 10.502 1.225 13.301-1.751z"/><path d="m426.13 136.677c-8.577-4.027-10.327-6.826-14.877-23.976-6.123-23.976-4.198-65.8 4.201-84.001 6.649-14.526 10.15-15.925 38.325-16.625l24.15-.7-1.051 4.199c-.522 2.276-1.573 6.3-2.099 9.102l-.874 5.075h-17.502c-15.925 0-17.675.348-21.525 4.198-4.198 4.201-7.523 18.202-5.25 21.877.7 1.226 8.226 1.925 19.25 1.925h18.027l-2.102 8.4-2.099 8.225-16.274.526c-15.576.525-16.102.699-17.853 5.075-3.324 8.925 2.628 23.45 11.027 26.949 3.325 1.399 10.499 1.751 20.827 1.051 8.747-.526 15.573-.351 15.573.525 0 .874-.874 7.523-1.925 14.7l-1.925 12.949-10.85 1.925c-15.75 2.799-27.126 2.277-35.174-1.399z"/></g></svg>

<?xml version="1.0" encoding="utf-8"?>
<svg version="1.0" xmlns="http://www.w3.org/2000/svg">
  <g>
    <path d="M 263.378 293.303 C 252.176 285.952 235.203 267.576 228.377 255.852 C 224.528 249.026 222.251 246.753 219.627 247.101 C 216.476 247.627 216.128 249.203 215.251 264.951 L 214.377 282.102 L 206.5 285.252 L 198.626 288.402 L 197.753 273.177 C 196.876 259.002 196.701 258.128 193.026 258.303 C 189.353 258.477 189.002 257.603 189.002 248.327 C 189.002 239.753 189.527 238.002 192.5 237.128 C 195.828 236.077 196.002 234.504 196.002 214.377 C 196.002 193.903 195.828 192.503 191.626 187.602 C 189.176 184.626 187.251 181.65 187.251 180.776 C 187.251 180.077 189.701 176.227 192.852 172.551 C 208.251 153.65 243.077 152.076 257.777 169.575 C 263.204 176.053 265.129 184.452 263.726 196.002 C 262.327 206.852 257.603 216.128 248.852 224.528 C 242.203 231.002 242.026 231.702 243.603 237.651 C 246.402 248.152 253.927 263.903 256.552 264.951 C 259.354 266.002 262.501 259.702 262.501 252.702 C 262.501 249.726 261.627 248.504 259.002 248.504 C 254.801 248.504 254.801 247.801 258.303 237.477 C 260.576 230.651 261.801 229.251 265.303 229.251 C 268.627 229.251 270.204 227.678 272.477 221.903 C 274.053 217.702 278.777 207.726 282.979 199.677 L 290.678 184.978 L 285.952 181.128 L 281.228 177.278 L 287.702 166.602 C 291.378 160.65 294.876 155.752 295.753 155.752 C 298.204 155.752 312.904 173.077 319.027 183.401 C 327.604 197.753 344.754 244.128 344.754 253.053 C 344.754 257.777 353.153 274.053 357.703 278.078 C 360.153 280.528 362.252 282.979 362.252 283.852 C 362.252 284.552 351.928 285.252 339.502 285.252 L 316.754 285.252 L 320.252 278.078 L 323.928 271.077 L 320.252 259.702 L 316.402 248.504 L 300.829 248.504 L 285.429 248.504 L 282.279 254.279 C 279.828 258.651 279.129 264.077 279.129 279.651 C 279.129 298.204 278.951 299.252 275.627 299.252 C 273.702 299.252 268.102 296.627 263.378 293.303 Z M 309.054 226.978 C 310.279 223.476 303.279 208.251 300.477 208.251 C 297.501 208.251 291.552 222.951 292.952 226.627 C 294.177 229.951 307.651 230.302 309.054 226.978 Z M 228.377 218.576 C 236.429 211.401 239.576 201.428 235.552 195.128 C 232.753 190.752 228.726 189.701 223.128 191.801 C 218.401 193.725 215.251 202.302 215.251 213.503 C 215.251 222.777 215.603 224.002 218.753 224.002 C 220.5 224.002 224.876 221.552 228.377 218.576 Z" style="fill: rgb(255, 255, 255);"/>
    <path d="M 537.954 295.576 C 531.305 292.252 530.254 286.477 530.254 255.504 C 530.254 236.951 529.554 225.576 528.506 224.876 C 524.831 222.603 522.029 227.678 520.981 237.477 C 519.578 250.077 511.005 267.753 502.779 274.576 C 480.205 293.303 451.68 279.828 441.004 245.354 C 434.178 223.302 437.854 189.701 448.878 172.902 C 459.379 157.152 479.68 151.377 495.254 159.602 C 509.254 167.128 521.506 188.65 521.506 205.452 C 521.506 214.026 525.704 219.801 528.68 215.077 C 529.554 213.678 530.254 198.452 530.254 181.128 L 530.254 149.626 L 535.855 159.251 C 540.93 168.001 571.206 199.503 574.531 199.503 C 575.405 199.503 575.756 191.626 575.405 182.176 C 575.056 168.527 574.179 164.152 571.729 161.353 C 568.579 157.851 568.756 157.677 580.48 151.203 C 586.954 147.701 594.306 143.677 596.405 142.278 C 600.432 139.827 600.606 139.827 599.207 143.851 C 595.705 154.875 595.005 163.101 595.005 200.377 C 595.005 222.603 594.48 248.327 593.78 257.777 L 592.729 274.927 L 586.08 278.252 L 579.432 281.753 L 578.381 273.354 C 575.93 255.504 570.507 243.777 560.356 233.801 C 548.981 222.951 547.756 224.876 547.756 252.876 C 547.756 276.678 549.155 283.504 553.879 283.504 C 560.531 283.504 553.53 295.054 546.005 296.453 C 543.554 296.979 539.879 296.453 537.954 295.576 Z M 486.506 252.876 C 489.479 251.303 493.506 246.927 495.605 242.726 C 499.104 236.251 499.629 232.753 499.629 214.377 C 499.629 194.428 499.455 192.852 494.728 184.978 C 491.755 179.903 487.38 175.527 483.878 173.776 C 478.455 171.152 477.578 171.152 473.38 173.951 C 466.554 178.503 462.53 186.551 460.253 199.852 C 455.53 227.152 464.803 252.002 480.905 255.327 C 481.254 255.504 483.704 254.279 486.506 252.876 Z" style="fill: rgb(255, 255, 255);"/>
    <path d="M 105.001 290.153 C 105.001 289.801 106.926 284.204 109.376 277.378 C 113.4 265.651 113.752 263.204 113.752 224.353 C 113.752 179.551 113.575 179.203 103.427 184.452 C 94.325 189.176 92.752 188.302 92.752 178.503 C 92.752 168.527 93.1 168.353 112.527 161.701 C 128.277 156.452 144.377 156.1 153.827 161.001 C 168.353 168.353 178.851 186.725 182.176 210.353 C 184.278 224.353 180.776 247.627 175.176 258.828 C 170.8 267.228 161.353 277.026 153.65 281.054 C 148.052 284.027 105.001 291.904 105.001 290.153 Z M 148.575 249.378 C 156.278 242.726 160.128 231.002 160.128 214.377 C 159.95 196.701 154.701 184.978 144.725 179.725 C 133.001 173.776 133.001 173.776 133.001 216.128 L 133.001 253.753 L 138.076 253.753 C 141.052 253.753 145.428 251.828 148.575 249.378 Z" style="fill: rgb(255, 255, 255);"/>
    <path d="M 378.703 280.876 C 364.529 274.927 353.679 260.053 349.303 240.978 C 345.802 226.101 345.802 215.428 349.129 199.503 C 352.279 184.8 355.078 178.851 363.478 169.575 C 379.577 151.725 397.952 151.203 418.779 167.827 C 422.454 170.626 427.178 173.602 429.103 174.302 C 432.253 175.176 431.553 176.401 422.454 185.677 C 416.854 191.278 411.604 196.002 410.905 196.002 C 410.205 196.002 408.28 193.026 406.878 189.527 C 403.028 180.428 397.43 175.002 392.003 175.002 C 373.979 175.002 363.652 213.326 374.853 238.176 C 377.304 243.603 381.154 249.378 383.43 250.951 C 388.853 254.801 402.154 254.801 403.727 250.951 C 404.778 248.152 402.328 229.251 399.703 221.026 C 398.652 217.176 399.004 217.002 410.727 217.002 C 428.577 217.002 428.403 216.651 429.28 248.504 C 429.628 263.378 430.505 277.204 431.205 279.129 C 432.43 282.453 431.553 282.627 408.103 282.801 C 392.003 282.979 382.205 282.453 378.703 280.876 Z" style="fill: rgb(255, 255, 255);"/>
    <path d="M 16.625 140.701 C 20.826 131.076 21.7 114.277 20.126 74.724 C 18.724 36.4 18.901 36.751 7.351 43.751 C 4.201 45.676 1.225 47.25 0.874 47.25 C 0.351 47.25 0 42.526 0 36.574 L 0 26.075 L 10.15 21.352 C 31.499 11.55 55.301 14.7 69.826 29.574 C 82.076 42 86.277 54.076 87.151 79.625 C 87.676 98.175 87.325 101.851 84.001 110.95 C 75.601 133.001 57.751 144.725 29.574 146.476 L 13.649 147.527 L 16.625 140.701 Z M 54.076 109.376 C 61.95 102.725 65.277 90.649 64.4 71.226 C 64.052 59.151 63.001 53.376 60.202 48.127 C 56.526 41.126 46.376 32.724 43.051 33.775 C 41.126 34.475 39.202 106.926 40.949 111.475 C 42.352 115.151 48.301 114.1 54.076 109.376 Z" style="fill: rgb(255, 255, 255);"/>
    <path d="M 126.875 140.175 C 111.475 133.001 101.151 115.503 97.827 91.175 C 94.499 66.502 101.325 40.25 114.626 26.949 C 123.725 17.85 136.851 14.351 148.752 17.502 C 182.876 26.601 194.777 92.4 168.875 127.926 C 158.551 142.278 141.752 147.175 126.875 140.175 Z M 146.827 112.875 C 154.875 108.851 159.602 96.776 160.476 78.052 C 161.176 64.751 160.827 60.55 157.677 52.325 C 150.677 33.601 138.602 27.649 129.151 38.325 C 113.752 55.475 116.551 101.677 133.701 112.175 C 140.175 116.202 140.527 116.202 146.827 112.875 Z" style="fill: rgb(255, 255, 255);"/>
    <path d="M 208.077 139.476 C 204.753 137.377 200.203 131.776 197.927 127.226 C 194.251 119.527 193.725 115.851 192.5 83.475 C 191.278 48.649 190.053 40.949 184.278 34.649 C 182.002 32.024 183.053 30.799 197.575 21.174 C 206.326 15.225 213.5 11.024 213.5 11.724 C 213.5 12.601 212.278 16.976 210.876 21.7 C 208.951 28.174 208.251 39.376 208.251 65.451 C 208.251 97.301 208.602 101.151 211.753 106.226 C 213.678 109.376 217.176 112.352 219.801 113.052 C 225.927 114.626 235.903 109.725 237.128 104.475 C 237.651 102.376 238.002 82.601 237.651 60.901 C 237.128 22.925 236.951 21 233.278 15.925 C 231.002 12.949 229.251 9.799 229.251 8.751 C 229.251 5.075 236.429 0 241.501 0 C 249.552 0 253.753 5.426 253.753 15.574 C 253.753 20.475 254.453 24.85 255.501 25.376 C 256.378 25.901 260.576 24.502 264.603 22.051 C 273.876 16.799 289.102 12.249 297.327 12.249 C 310.802 12.427 325.327 23.099 328.652 35.7 C 330.228 41.126 329.354 49 326.204 59.151 C 325.327 62.301 326.204 64.574 330.402 68.775 C 338.979 77.875 341.952 85.4 342.303 99.574 C 342.652 106.575 343.177 112.701 343.703 113.226 C 345.102 114.626 354.727 108.677 355.952 105.875 C 356.478 104.301 357.003 90.475 357.003 75.076 C 357.003 44.976 355.43 37.799 348.078 32.724 C 345.979 31.15 344.402 29.574 344.928 29.225 C 346.327 28 381.679 7 382.205 7 C 382.553 7 381.505 10.324 379.928 14.351 C 377.652 20.649 377.129 29.574 377.129 65.625 L 377.129 109.376 L 385.529 109.025 C 390.079 108.851 395.154 107.8 396.553 106.575 C 400.055 103.776 401.28 105.526 404.953 118.827 C 407.577 128.8 407.577 130.377 405.13 134.052 C 401.454 139.65 396.205 140.701 375.205 139.476 C 365.228 138.95 352.102 139.302 346.327 140.175 C 340.378 141.052 335.129 141.575 334.778 141.052 C 334.252 140.701 334.952 138.602 336.003 136.503 C 339.153 130.551 335.652 128.1 329.703 132.301 C 315.703 142.278 317.627 141.752 289.102 141.401 C 274.576 141.052 262.678 140.527 263.026 140.001 C 263.378 139.476 265.651 134.575 268.279 128.977 C 273.002 119.001 273.002 118.476 273.002 80.502 C 273.002 54.949 272.303 41.826 271.077 40.949 C 269.678 40.075 260.927 43.4 255.501 46.901 C 254.978 47.25 254.279 64.574 253.753 85.4 C 252.702 127.752 251.828 131.428 239.753 139.476 C 231.702 145.076 216.302 145.076 208.077 139.476 Z M 313.429 105.175 C 324.802 93.8 315.354 77.001 297.678 77.001 L 292.252 77.001 L 292.252 93.625 L 292.252 110.25 L 300.303 110.25 C 306.777 110.25 309.228 109.376 313.429 105.175 Z M 305.027 54.775 C 311.678 47.25 309.402 35.352 301.003 33.25 C 292.952 31.15 290.501 33.949 290.501 45.325 C 290.501 50.925 291.027 56.001 291.726 56.526 C 294.003 58.799 302.228 57.751 305.027 54.775 Z" style="fill: rgb(255, 255, 255);"/>
    <path d="M 426.13 136.677 C 417.553 132.65 415.803 129.851 411.253 112.701 C 405.13 88.725 407.055 46.901 415.454 28.7 C 422.103 14.174 425.604 12.775 453.779 12.075 L 477.929 11.375 L 476.878 15.574 C 476.356 17.85 475.305 21.874 474.779 24.676 L 473.905 29.751 L 456.403 29.751 C 440.478 29.751 438.728 30.099 434.878 33.949 C 430.68 38.15 427.355 52.151 429.628 55.826 C 430.328 57.052 437.854 57.751 448.878 57.751 L 466.905 57.751 L 464.803 66.151 L 462.704 74.376 L 446.43 74.902 C 430.854 75.427 430.328 75.601 428.577 79.977 C 425.253 88.902 431.205 103.427 439.604 106.926 C 442.929 108.325 450.103 108.677 460.431 107.977 C 469.178 107.451 476.004 107.626 476.004 108.502 C 476.004 109.376 475.13 116.025 474.079 123.202 L 472.154 136.151 L 461.304 138.076 C 445.554 140.875 434.178 140.353 426.13 136.677 Z" style="fill: rgb(255, 255, 255);"/>
  </g>
</svg>
